X:18744
T:Whitehaven Hornpipe. BF13.069
M:4/4
L:1/8
Q:180
C:In hand "B"
S:MS13,c1850,Lakes,Browne Coll..
R:Hornpipe
O:England
A:Lakes
Z:vmp.Chris Partington
K:A
ef/g/|aece Acea|fdBGA2"sq's"B-c|defe dcBA|GABG Eefg|!
aece Acea|fdBGA2"sq's"Bc|dfed dcBA|B2A2A2::!
ed|ceAe ceAe|dfBf dfBf|ceAe ceAe|GBEB GBEB|!
ceAe ceAe|dfBf dfBf|eagf edcB|A2A2A2:|]


